modules/ROOT/images/icons/sharpen.svg

<?xml version="1.0" encoding="UTF-8"?>
<svg width="24px" height="24px" viewBox="0 0 24 24" version="1.1" xmlns="http://www.w3.org/2000/svg" xmlns:xlink="http://www.w3.org/1999/xlink">
    <!-- Generator: Sketch 51.2 (57519) - http://www.bohemiancoding.com/sketch -->
    <title>icon-sharpen</title>
    <desc>Created with Sketch.</desc>
    <defs></defs>
    <g stroke="none" stroke-width="1" fill="none" fill-rule="evenodd">
        <path d="M16,6 L20,10 L12,19 L4,10 L8,6 L16,6 Z M12,16.171875 L17.484375,10 L17.359375,9.875 L12,9.875 L12,9.625 L17.109375,9.625 L16.859375,9.375 L12,9.375 L12,9.125 L16.609375,9.125 L16.359375,8.875 L12,8.875 L12,8.625 L16.109375,8.625 L15.859375,8.375 L12,8.375 L12,8.125 L15.609375,8.125 L15.359375,7.875 L12,7.875 L12,7.828125 L8.6875,7.828125 L6.515625,10 L6.625,10.125 L12,10.125 L12,10.375 L6.859375,10.375 L7.078125,10.625 L12,10.625 L12,10.875 L7.296875,10.875 L7.515625,11.125 L12,11.125 L12,11.375 L7.734375,11.375 L7.96875,11.625 L12,11.625 L12,11.875 L8.1875,11.875 L8.40625,12.125 L12,12.125 L12,12.375 L8.625,12.375 L8.859375,12.625 L12,12.625 L12,12.875 L9.078125,12.875 L9.296875,13.125 L12,13.125 L12,13.375 L9.515625,13.375 L9.734375,13.625 L12,13.625 L12,13.875 L9.96875,13.875 L10.1875,14.125 L12,14.125 L12,14.375 L10.40625,14.375 L10.625,14.625 L12,14.625 L12,14.875 L10.859375,14.875 L11.078125,15.125 L12,15.125 L12,15.375 L11.296875,15.375 L11.515625,15.625 L12,15.625 L12,15.875 L11.734375,15.875 L11.96875,16.125 L12,16.125 L12,16.171875 Z" fill="#000000"></path>
    </g>
</svg>

<svg xmlns="http://www.w3.org/2000/svg" width="24" height="24" fill="none" viewBox="0 0 24 24">
  <path fill="#222F3E" fill-rule="evenodd" d="m16 6 4 4-8 9-8-9 4-4h8Zm-4 10.172L17.484 10l-.125-.125H12v-.25h5.11l-.25-.25H12v-.25h4.61l-.25-.25H12v-.25h4.11l-.25-.25H12v-.25h3.61l-.25-.25H12v-.047H8.687L6.517 10l.109.125H12v.25H6.86l.218.25H12v.25H7.297l.219.25H12v.25H7.734l.235.25H12v.25H8.187l.22.25H12v.25H8.625l.234.25H12v.25H9.078l.219.25H12v.25H9.516l.218.25H12v.25H9.969l.219.25H12v.25h-1.594l.219.25H12v.25h-1.14l.218.25H12v.25h-.703l.219.25H12v.25h-.266l.235.25H12v.047Z"/>
</svg>
